en/_assets/tracker/changelogs/status-2-in-progress.svg

<svg width="86" height="20" viewBox="0 0 86 20" fill="none" xmlns="http://www.w3.org/2000/svg">
<rect width="86" height="20" rx="5" fill="#5282FF" fill-opacity="0.1"/>
<path fill-rule="evenodd" clip-rule="evenodd" d="M17.5 10C17.5 13.0376 15.0376 15.5 12 15.5C8.96243 15.5 6.5 13.0376 6.5 10C6.5 6.96243 8.96243 4.5 12 4.5C15.0376 4.5 17.5 6.96243 17.5 10ZM19 10C19 13.866 15.866 17 12 17C8.13401 17 5 13.866 5 10C5 6.13401 8.13401 3 12 3C15.866 3 19 6.13401 19 10ZM11.25 13.0311L15 10.866C15.6667 10.4811 15.6667 9.51888 15 9.13398L11.25 6.96891C10.5833 6.58401 9.75 7.06513 9.75 7.83493L9.75 12.1651C9.75 12.9349 10.5833 13.416 11.25 13.0311Z" fill="#5282FF"/>
<path d="M25.3049 4.679H28.4639C29.4866 4.679 30.2622 4.85233 30.7909 5.199C31.3282 5.54567 31.5969 6.13067 31.5969 6.954C31.5969 7.292 31.5492 7.58667 31.4539 7.838C31.3672 8.08067 31.2416 8.293 31.0769 8.475C30.9209 8.64833 30.7259 8.79133 30.4919 8.904C30.2666 9.01667 30.0152 9.10333 29.7379 9.164C30.4659 9.25067 31.0119 9.463 31.3759 9.801C31.7486 10.1303 31.9349 10.633 31.9349 11.309C31.9349 11.7943 31.8439 12.2103 31.6619 12.557C31.4886 12.895 31.2459 13.1723 30.9339 13.389C30.6219 13.597 30.2536 13.753 29.8289 13.857C29.4042 13.9523 28.9406 14 28.4379 14H25.3049V4.679ZM26.5269 5.797V8.657H28.3729C28.6676 8.657 28.9362 8.62667 29.1789 8.566C29.4216 8.49667 29.6296 8.397 29.8029 8.267C29.9762 8.12833 30.1106 7.95933 30.2059 7.76C30.3099 7.552 30.3619 7.305 30.3619 7.019C30.3619 6.54233 30.1972 6.22167 29.8679 6.057C29.5386 5.88367 29.0706 5.797 28.4639 5.797H26.5269ZM26.5269 9.762V12.895H28.4379C28.7672 12.895 29.0662 12.869 29.3349 12.817C29.6036 12.765 29.8332 12.6783 30.0239 12.557C30.2232 12.4357 30.3749 12.2753 30.4789 12.076C30.5916 11.8767 30.6479 11.6297 30.6479 11.335C30.6479 10.7457 30.4572 10.3383 30.0759 10.113C29.7032 9.879 29.1096 9.762 28.2949 9.762H26.5269ZM39.7772 14.13C39.2572 14.13 38.8066 14.0087 38.4252 13.766C38.0526 13.5233 37.7536 13.1897 37.5282 12.765V16.301H36.3842V7.253H37.3852L37.5022 8.566C37.7276 8.124 38.0309 7.773 38.4122 7.513C38.7936 7.253 39.2659 7.123 39.8292 7.123C40.2192 7.123 40.5919 7.19667 40.9472 7.344C41.3112 7.48267 41.6276 7.69933 41.8962 7.994C42.1736 8.28 42.3902 8.644 42.5462 9.086C42.7109 9.51933 42.7932 10.0307 42.7932 10.62C42.7932 11.218 42.7109 11.738 42.5462 12.18C42.3816 12.6133 42.1606 12.9773 41.8832 13.272C41.6059 13.558 41.2852 13.7747 40.9212 13.922C40.5572 14.0607 40.1759 14.13 39.7772 14.13ZM39.6082 13.103C40.2062 13.103 40.6872 12.8993 41.0512 12.492C41.4239 12.076 41.6102 11.452 41.6102 10.62C41.6102 9.80533 41.4239 9.19 41.0512 8.774C40.6872 8.34933 40.2062 8.137 39.6082 8.137C39.3136 8.137 39.0362 8.189 38.7762 8.293C38.5249 8.397 38.3039 8.553 38.1132 8.761C37.9312 8.96033 37.7839 9.216 37.6712 9.528C37.5672 9.84 37.5152 10.204 37.5152 10.62C37.5152 11.036 37.5672 11.4 37.6712 11.712C37.7839 12.024 37.9312 12.284 38.1132 12.492C38.3039 12.7 38.5249 12.856 38.7762 12.96C39.0362 13.0553 39.3136 13.103 39.6082 13.103ZM48.0677 12.713C47.9897 12.869 47.89 13.0337 47.7687 13.207C47.6474 13.3717 47.4957 13.5233 47.3137 13.662C47.1317 13.8007 46.915 13.9133 46.6637 14C46.421 14.0867 46.135 14.13 45.8057 14.13C45.199 14.13 44.7094 13.961 44.3367 13.623C43.964 13.2763 43.7777 12.7823 43.7777 12.141C43.7777 11.4043 44.0334 10.8627 44.5447 10.516C45.0647 10.1693 45.8014 9.996 46.7547 9.996H48.0157V9.437C48.0157 8.969 47.8944 8.63533 47.6517 8.436C47.409 8.23667 46.993 8.137 46.4037 8.137C45.9877 8.137 45.5934 8.20633 45.2207 8.345C44.848 8.475 44.5144 8.62667 44.2197 8.8V7.773C44.4624 7.62567 44.7874 7.48267 45.1947 7.344C45.6107 7.19667 46.0657 7.123 46.5597 7.123C47.409 7.123 48.0547 7.30067 48.4967 7.656C48.9387 8.00267 49.1597 8.54433 49.1597 9.281V12.908C49.1597 12.986 49.1597 13.077 49.1597 13.181C49.1684 13.2763 49.1727 13.376 49.1727 13.48C49.1814 13.584 49.19 13.6837 49.1987 13.779C49.2074 13.8657 49.216 13.9393 49.2247 14H48.1847C48.1587 13.8787 48.1327 13.7097 48.1067 13.493C48.0894 13.2677 48.0807 13.0727 48.0807 12.908L48.0677 12.713ZM46.0527 13.103C46.408 13.103 46.7114 13.0293 46.9627 12.882C47.214 12.7347 47.4177 12.5657 47.5737 12.375C47.7297 12.1757 47.8424 11.985 47.9117 11.803C47.981 11.6123 48.0157 11.478 48.0157 11.4V10.906H46.8717C46.187 10.906 45.6887 11.0057 45.3767 11.205C45.0734 11.3957 44.9217 11.686 44.9217 12.076C44.9217 12.3793 45.0127 12.6263 45.1947 12.817C45.3767 13.0077 45.6627 13.103 46.0527 13.103ZM57.0425 10.62C57.0425 11.1833 56.9558 11.6817 56.7825 12.115C56.6178 12.5483 56.3881 12.9167 56.0935 13.22C55.8075 13.5147 55.4651 13.74 55.0665 13.896C54.6678 14.052 54.2345 14.13 53.7665 14.13C53.2898 14.13 52.8521 14.052 52.4535 13.896C52.0548 13.7313 51.7125 13.4843 51.4265 13.155C51.1405 12.8257 50.9151 12.4097 50.7505 11.907C50.5945 11.4043 50.5165 10.8107 50.5165 10.126C50.5165 9.56267 50.5338 9.02533 50.5685 8.514C50.6031 8.00267 50.6811 7.53033 50.8025 7.097C50.9238 6.655 51.0971 6.26067 51.3225 5.914C51.5565 5.55867 51.8685 5.264 52.2585 5.03C52.4751 4.9 52.7005 4.80467 52.9345 4.744C53.1685 4.67467 53.4025 4.62267 53.6365 4.588C53.8791 4.55333 54.1218 4.53167 54.3645 4.523C54.6071 4.51433 54.8455 4.50567 55.0795 4.497C55.4261 4.471 55.7165 4.42767 55.9505 4.367C56.1845 4.30633 56.3925 4.224 56.5745 4.12V5.16C56.3838 5.28133 56.1801 5.368 55.9635 5.42C55.7555 5.46333 55.4998 5.50233 55.1965 5.537C54.7025 5.58033 54.2475 5.615 53.8315 5.641C53.4241 5.65833 53.0515 5.75367 52.7135 5.927C52.2801 6.16967 51.9725 6.53367 51.7905 7.019C51.6171 7.49567 51.5088 8.06333 51.4655 8.722C51.9161 7.682 52.7655 7.162 54.0135 7.162C54.4381 7.162 54.8325 7.24 55.1965 7.396C55.5691 7.54333 55.8898 7.76433 56.1585 8.059C56.4358 8.35367 56.6525 8.71767 56.8085 9.151C56.9645 9.57567 57.0425 10.0653 57.0425 10.62ZM53.7665 13.103C54.0698 13.103 54.3471 13.0553 54.5985 12.96C54.8585 12.856 55.0838 12.7043 55.2745 12.505C55.4651 12.297 55.6125 12.037 55.7165 11.725C55.8205 11.413 55.8725 11.0447 55.8725 10.62C55.8725 10.1953 55.8205 9.827 55.7165 9.515C55.6125 9.203 55.4651 8.94733 55.2745 8.748C55.0838 8.54 54.8585 8.38833 54.5985 8.293C54.3471 8.189 54.0698 8.137 53.7665 8.137C53.1685 8.137 52.6701 8.33633 52.2715 8.735C51.8815 9.13367 51.6865 9.749 51.6865 10.581C51.6865 11.0143 51.7385 11.3913 51.8425 11.712C51.9465 12.024 52.0895 12.284 52.2715 12.492C52.4621 12.7 52.6831 12.856 52.9345 12.96C53.1858 13.0553 53.4631 13.103 53.7665 13.103ZM61.2431 14.13C60.7838 14.13 60.3548 14.052 59.9561 13.896C59.5574 13.74 59.2108 13.5147 58.9161 13.22C58.6301 12.9167 58.4048 12.5483 58.2401 12.115C58.0754 11.6817 57.9931 11.1833 57.9931 10.62C57.9931 10.0653 58.0754 9.57133 58.2401 9.138C58.4048 8.696 58.6301 8.32767 58.9161 8.033C59.2108 7.73833 59.5574 7.513 59.9561 7.357C60.3548 7.201 60.7838 7.123 61.2431 7.123C61.7111 7.123 62.1444 7.201 62.5431 7.357C62.9418 7.513 63.2841 7.73833 63.5701 8.033C63.8648 8.32767 64.0944 8.696 64.2591 9.138C64.4324 9.57133 64.5191 10.0653 64.5191 10.62C64.5191 11.1833 64.4324 11.6817 64.2591 12.115C64.0944 12.5483 63.8648 12.9167 63.5701 13.22C63.2841 13.5147 62.9418 13.74 62.5431 13.896C62.1444 14.052 61.7111 14.13 61.2431 14.13ZM61.2431 13.103C61.5464 13.103 61.8238 13.0553 62.0751 12.96C62.3351 12.856 62.5604 12.7043 62.7511 12.505C62.9418 12.297 63.0891 12.037 63.1931 11.725C63.2971 11.413 63.3491 11.0447 63.3491 10.62C63.3491 10.1953 63.2971 9.827 63.1931 9.515C63.0891 9.203 62.9418 8.94733 62.7511 8.748C62.5604 8.54 62.3351 8.38833 62.0751 8.293C61.8238 8.189 61.5464 8.137 61.2431 8.137C60.9398 8.137 60.6624 8.189 60.4111 8.293C60.1598 8.38833 59.9388 8.54 59.7481 8.748C59.5661 8.94733 59.4231 9.203 59.3191 9.515C59.2151 9.827 59.1631 10.1953 59.1631 10.62C59.1631 11.0447 59.2151 11.413 59.3191 11.725C59.4231 12.037 59.5661 12.297 59.7481 12.505C59.9388 12.7043 60.1598 12.856 60.4111 12.96C60.6624 13.0553 60.9398 13.103 61.2431 13.103ZM68.4401 8.228V14H67.2961V8.228H65.1771V7.253H70.5981V8.228H68.4401ZM77.097 13.428C77.0017 13.4973 76.8847 13.571 76.746 13.649C76.6073 13.727 76.4383 13.805 76.239 13.883C76.0397 13.9523 75.8143 14.0087 75.563 14.052C75.3117 14.104 75.03 14.13 74.718 14.13C73.5827 14.13 72.7203 13.8223 72.131 13.207C71.5417 12.5917 71.247 11.7293 71.247 10.62C71.247 10.074 71.325 9.58433 71.481 9.151C71.6457 8.71767 71.871 8.35367 72.157 8.059C72.443 7.75567 72.781 7.526 73.171 7.37C73.561 7.20533 73.9857 7.123 74.445 7.123C74.9303 7.123 75.3637 7.20533 75.745 7.37C76.1263 7.53467 76.4383 7.77733 76.681 8.098C76.9323 8.41867 77.1013 8.81733 77.188 9.294C77.2833 9.762 77.2833 10.308 77.188 10.932H72.43C72.4733 11.66 72.69 12.206 73.08 12.57C73.47 12.9253 74.0507 13.103 74.822 13.103C75.342 13.103 75.7883 13.0293 76.161 12.882C76.5337 12.7347 76.8457 12.5743 77.097 12.401V13.428ZM74.419 8.137C73.925 8.137 73.5003 8.28867 73.145 8.592C72.7897 8.89533 72.5643 9.35467 72.469 9.97H76.096C76.1307 9.346 75.9877 8.88667 75.667 8.592C75.3463 8.28867 74.9303 8.137 74.419 8.137Z" fill="#5282FF"/>
</svg>

<svg xmlns="http://www.w3.org/2000/svg" width="86" height="20" fill="none"><rect width="86" height="20" fill="#5282FF" fill-opacity=".1" rx="5"/><path fill="#5282FF" fill-rule="evenodd" d="M17.5 10a5.5 5.5 0 1 1-11 0 5.5 5.5 0 0 1 11 0Zm1.5 0a7 7 0 1 1-14 0 7 7 0 0 1 14 0Zm-7.75 3.031L15 10.866a1 1 0 0 0 0-1.732l-3.75-2.165a1 1 0 0 0-1.5.866v4.33a1 1 0 0 0 1.5.866Z" clip-rule="evenodd"/><path fill="#5282FF" d="M25.305 4.679h3.159c1.023 0 1.798.173 2.327.52.537.347.806.932.806 1.755 0 .338-.048.633-.143.884a1.881 1.881 0 0 1-.377.637 1.862 1.862 0 0 1-.585.429c-.225.113-.477.2-.754.26.728.087 1.274.299 1.638.637.373.33.559.832.559 1.508 0 .485-.091.901-.273 1.248a2.246 2.246 0 0 1-.728.832c-.312.208-.68.364-1.105.468a6.353 6.353 0 0 1-1.391.143h-3.133V4.679Zm1.222 1.118v2.86h1.846c.295 0 .563-.03.806-.091.243-.07.45-.169.624-.299.173-.139.308-.308.403-.507a1.64 1.64 0 0 0 .156-.741c0-.477-.165-.797-.494-.962-.33-.173-.797-.26-1.404-.26h-1.937Zm0 3.965v3.133h1.91c.33 0 .63-.026.898-.078a1.97 1.97 0 0 0 .689-.26c.2-.121.35-.282.455-.481.113-.2.169-.446.169-.741 0-.59-.19-.997-.572-1.222-.373-.234-.966-.351-1.781-.351h-1.768Zm13.25 4.368c-.52 0-.97-.121-1.352-.364a2.648 2.648 0 0 1-.897-1.001v3.536h-1.144V7.253h1.001l.117 1.313c.226-.442.529-.793.91-1.053.382-.26.854-.39 1.417-.39.39 0 .763.074 1.118.221.364.139.68.355.95.65.277.286.493.65.65 1.092.164.433.246.945.246 1.534 0 .598-.082 1.118-.247 1.56a3.26 3.26 0 0 1-.663 1.092 2.78 2.78 0 0 1-.962.65 3.185 3.185 0 0 1-1.144.208Zm-.169-1.027c.598 0 1.08-.204 1.443-.611.373-.416.56-1.04.56-1.872 0-.815-.187-1.43-.56-1.846-.364-.425-.845-.637-1.443-.637a2.22 2.22 0 0 0-.832.156c-.251.104-.472.26-.663.468-.182.2-.33.455-.442.767a3.457 3.457 0 0 0-.156 1.092c0 .416.052.78.156 1.092.113.312.26.572.442.78.19.208.412.364.663.468.26.095.538.143.832.143Zm8.46-.39c-.078.156-.178.32-.3.494a2.26 2.26 0 0 1-1.104.793c-.243.087-.529.13-.858.13-.607 0-1.097-.169-1.47-.507-.372-.347-.558-.84-.558-1.482 0-.737.255-1.278.767-1.625.52-.347 1.256-.52 2.21-.52h1.26v-.559c0-.468-.12-.802-.363-1.001-.243-.2-.659-.299-1.248-.299-.416 0-.81.07-1.183.208-.373.13-.707.282-1.001.455V7.773c.242-.147.567-.29.975-.429a4.063 4.063 0 0 1 1.365-.221c.849 0 1.495.178 1.937.533.442.347.663.888.663 1.625v3.9c.008.095.013.195.013.299.008.104.017.204.026.299.008.087.017.16.026.221h-1.04a5.934 5.934 0 0 1-.078-.507 7.787 7.787 0 0 1-.026-.585l-.013-.195Zm-2.015.39c.355 0 .658-.074.91-.221.251-.147.455-.316.61-.507.157-.2.27-.39.339-.572.069-.19.104-.325.104-.403v-.494h-1.144c-.685 0-1.183.1-1.495.299-.304.19-.455.481-.455.871 0 .303.09.55.273.741.182.19.468.286.858.286Zm10.99-2.483c0 .563-.087 1.062-.26 1.495a3.19 3.19 0 0 1-.69 1.105c-.286.295-.628.52-1.027.676a3.537 3.537 0 0 1-1.3.234c-.476 0-.914-.078-1.313-.234a2.718 2.718 0 0 1-1.027-.741c-.285-.33-.51-.745-.675-1.248-.157-.503-.234-1.096-.234-1.781 0-.563.017-1.1.051-1.612.035-.511.113-.984.235-1.417.12-.442.294-.836.52-1.183a2.865 2.865 0 0 1 1.611-1.17 5.1 5.1 0 0 1 .703-.156c.242-.035.485-.056.727-.065l.716-.026c.346-.026.637-.07.87-.13.234-.06.442-.143.624-.247v1.04c-.19.121-.394.208-.61.26a8.684 8.684 0 0 1-.767.117c-.495.043-.95.078-1.366.104-.407.017-.78.113-1.117.286a2.02 2.02 0 0 0-.923 1.092c-.174.477-.282 1.044-.325 1.703.45-1.04 1.3-1.56 2.547-1.56.425 0 .82.078 1.184.234.372.147.693.368.961.663.278.295.495.659.65 1.092.157.425.234.914.234 1.469Zm-3.276 2.483c.303 0 .58-.048.831-.143.26-.104.486-.256.677-.455.19-.208.337-.468.442-.78.104-.312.156-.68.156-1.105 0-.425-.052-.793-.156-1.105a2.01 2.01 0 0 0-.442-.767 1.7 1.7 0 0 0-.676-.455 2.156 2.156 0 0 0-.832-.156c-.599 0-1.097.2-1.495.598-.39.399-.585 1.014-.585 1.846 0 .433.052.81.156 1.131.103.312.246.572.428.78.191.208.412.364.663.468.252.095.53.143.833.143Zm7.476 1.027a3.5 3.5 0 0 1-1.287-.234 2.997 2.997 0 0 1-1.04-.676 3.295 3.295 0 0 1-.676-1.105c-.165-.433-.247-.932-.247-1.495 0-.555.082-1.049.247-1.482.165-.442.39-.81.676-1.105.295-.295.641-.52 1.04-.676a3.5 3.5 0 0 1 1.287-.234c.468 0 .901.078 1.3.234.399.156.741.381 1.027.676.295.295.524.663.69 1.105.172.433.26.927.26 1.482 0 .563-.088 1.062-.26 1.495a3.188 3.188 0 0 1-.69 1.105c-.286.295-.628.52-1.027.676a3.537 3.537 0 0 1-1.3.234Zm0-1.027c.303 0 .58-.048.832-.143.26-.104.485-.256.676-.455.19-.208.338-.468.442-.78.104-.312.156-.68.156-1.105 0-.425-.052-.793-.156-1.105a2.009 2.009 0 0 0-.442-.767 1.7 1.7 0 0 0-.676-.455 2.156 2.156 0 0 0-.832-.156c-.303 0-.58.052-.832.156a1.718 1.718 0 0 0-.663.455 2.11 2.11 0 0 0-.429.767c-.104.312-.156.68-.156 1.105 0 .425.052.793.156 1.105.104.312.247.572.43.78.19.2.41.351.662.455.251.095.529.143.832.143Zm7.197-4.875V14h-1.144V8.228h-2.119v-.975h5.421v.975H68.44Zm8.657 5.2c-.095.07-.212.143-.351.221a4.075 4.075 0 0 1-.507.234c-.2.07-.425.126-.676.169a4.185 4.185 0 0 1-.845.078c-1.135 0-1.998-.308-2.587-.923-.59-.615-.884-1.478-.884-2.587 0-.546.078-1.036.234-1.469.165-.433.39-.797.676-1.092a2.812 2.812 0 0 1 1.014-.689c.39-.165.815-.247 1.274-.247.485 0 .919.082 1.3.247.381.165.693.407.936.728.251.32.42.72.507 1.196.095.468.095 1.014 0 1.638H72.43c.043.728.26 1.274.65 1.638.39.355.97.533 1.742.533.52 0 .966-.074 1.339-.221.373-.147.685-.308.936-.481v1.027Zm-2.678-5.291c-.494 0-.919.152-1.274.455-.355.303-.58.763-.676 1.378h3.627c.035-.624-.108-1.083-.429-1.378-.32-.303-.737-.455-1.248-.455Z"/></svg>
